img/Client2.svg

<svg width="175" height="90" viewBox="0 0 175 90" fill="none" xmlns="http://www.w3.org/2000/svg">
<rect x="0.5" y="0.5" width="174" height="89" rx="3.5" stroke="#AFB1B8"/>
<path d="M84.9769 21.9345H85.1135C85.3665 21.9345 85.6397 21.9599 85.9104 21.9828C87.103 22.067 88.2873 22.2455 89.452 22.5168V19.6535C88.2527 19.3526 87.0296 19.1578 85.7965 19.0712C85.3285 19.0356 84.8302 19.0127 84.3192 19H83.8917C81.4168 19.0093 78.9526 19.3271 76.5554 19.946C73.8252 20.6269 71.2046 21.6928 68.7715 23.1119V51.5086C71.1142 50.2357 73.607 49.2643 76.1912 48.6173C78.2315 48.0967 80.3174 47.7765 82.4193 47.6612H82.5028C82.8545 47.6434 83.2061 47.6332 83.5678 47.6306V44.7216C80.8366 44.7567 78.1192 45.1178 75.4727 45.7972C74.4937 46.0515 73.5476 46.3261 72.6597 46.6313L71.6478 46.9746V24.8334L72.0804 24.6249C75.3816 23.0595 78.9521 22.1486 82.5964 21.9421C82.6267 21.9399 82.6572 21.9399 82.6875 21.9421C83.0897 21.9218 83.4945 21.9116 83.8917 21.9116H84.3268H84.347C84.557 21.9167 84.7669 21.9218 84.9769 21.9345Z" fill="#AFB1B8"/>
<path d="M92.1108 24.9326C91.4455 24.9326 90.7877 24.9097 90.1528 24.8614C89.3939 24.8054 88.6147 24.7139 87.876 24.5893C87.4257 24.513 86.983 24.4215 86.553 24.3223V52.3935C88.3737 52.8443 90.2433 53.0647 92.1184 53.0496C94.5931 53.0395 97.0571 52.7227 99.4546 52.1061C102.185 51.4243 104.807 50.3585 107.241 48.9402V21.0496C104.899 22.3218 102.407 23.294 99.8239 23.9434C97.3031 24.5908 94.7125 24.9231 92.1108 24.9326ZM103.335 25.4183L104.347 25.0775V47.2263L103.914 47.4348C102.255 48.2243 100.522 48.8469 98.7412 49.2937C96.5781 49.8533 94.3544 50.1412 92.1209 50.1506C91.4531 50.1506 90.7903 50.1227 90.1477 50.0667L89.4546 50.0057V47.3178V27.2288L90.2616 27.2822C90.8485 27.3204 91.4556 27.3382 92.1158 27.3382C94.9514 27.3281 97.7749 26.966 100.522 26.26C101.466 26.0108 102.404 25.7311 103.335 25.4183Z" fill="#AFB1B8"/>
<path d="M70.7373 61.2123C70.5918 61.0614 70.4164 60.9429 70.2225 60.8645C70.0286 60.7861 69.8204 60.7495 69.6115 60.7571C69.3889 60.7541 69.1679 60.7956 68.9614 60.8791C68.772 60.9546 68.5999 61.0679 68.4554 61.2123C68.3126 61.3571 68.2014 61.5303 68.1291 61.7208C68.0498 61.9205 68.0103 62.1339 68.0127 62.3489V66.143C68.0037 66.4103 68.0547 66.6763 68.162 66.9211C68.2516 67.1155 68.3808 67.2888 68.5415 67.4297C68.6931 67.5573 68.8711 67.6494 69.0626 67.6992C69.2471 67.7511 69.4377 67.7776 69.6292 67.7781C69.8405 67.7802 70.0497 67.735 70.2414 67.6458C70.4311 67.5629 70.6029 67.4437 70.7474 67.2949C70.8883 67.1475 71.0006 66.975 71.0788 66.7863C71.1599 66.595 71.2012 66.3891 71.2002 66.1811V65.7564H70.2085V66.0947C70.2115 66.2101 70.1917 66.3251 70.1504 66.4329C70.1181 66.5136 70.0689 66.5865 70.0062 66.6465C69.9447 66.6961 69.8743 66.7332 69.7987 66.7558C69.7318 66.7781 69.6618 66.7901 69.5913 66.7914C69.5028 66.8017 69.4131 66.7883 69.3313 66.7526C69.2496 66.7169 69.1787 66.6601 69.1258 66.588C69.0323 66.4355 68.9865 66.2583 68.9943 66.0794V62.5422C68.9881 62.3461 69.0298 62.1514 69.1157 61.9751C69.1672 61.8951 69.24 61.8311 69.3259 61.7907C69.4118 61.7502 69.5072 61.7348 69.6014 61.7463C69.6869 61.7432 69.7718 61.7611 69.8489 61.7983C69.926 61.8355 69.993 61.8909 70.0441 61.9599C70.1551 62.1056 70.2131 62.285 70.2085 62.4685V62.7965H71.1901V62.41C71.1921 62.183 71.1509 61.9577 71.0686 61.7463C70.9954 61.5475 70.8826 61.3658 70.7373 61.2123Z" fill="#AFB1B8"/>
<path d="M76.6289 61.1692C76.3127 60.9022 75.9136 60.7547 75.5007 60.7522C75.2987 60.7531 75.0984 60.7892 74.9087 60.859C74.7161 60.928 74.5384 61.0333 74.3851 61.1692C74.2208 61.3169 74.0897 61.4981 74.0005 61.7007C73.9006 61.9325 73.8515 62.1831 73.8563 62.4356V66.0745C73.8495 66.3305 73.8987 66.5849 74.0005 66.8196C74.0903 67.0153 74.2215 67.1889 74.3851 67.3282C74.5367 67.4689 74.7147 67.5779 74.9087 67.6486C75.0984 67.7184 75.2987 67.7545 75.5007 67.7554C75.7027 67.755 75.9031 67.7188 76.0926 67.6486C76.29 67.5769 76.4719 67.4681 76.6289 67.3282C76.7871 67.1862 76.9145 67.0131 77.0033 66.8196C77.1051 66.5849 77.1544 66.3305 77.1475 66.0745V62.4356C77.1524 62.1831 77.1032 61.9325 77.0033 61.7007C76.9151 61.5002 76.7878 61.3195 76.6289 61.1692ZM76.166 66.0745C76.1743 66.1715 76.1609 66.2691 76.1268 66.3602C76.0926 66.4513 76.0386 66.5336 75.9687 66.6009C75.8377 66.7107 75.6725 66.7709 75.5019 66.7709C75.3313 66.7709 75.1662 66.7107 75.0352 66.6009C74.9652 66.5336 74.9112 66.4513 74.8771 66.3602C74.8429 66.2691 74.8295 66.1715 74.8379 66.0745V62.4356C74.8295 62.3386 74.8429 62.241 74.8771 62.1499C74.9112 62.0588 74.9652 61.9765 75.0352 61.9092C75.1662 61.7994 75.3313 61.7392 75.5019 61.7392C75.6725 61.7392 75.8377 61.7994 75.9687 61.9092C76.0386 61.9765 76.0926 62.0588 76.1268 62.1499C76.1609 62.241 76.1743 62.3386 76.166 62.4356V66.0745Z" fill="#AFB1B8"/>
<path d="M84.3673 67.6993V60.8105H83.4136L82.1614 64.4571H82.1437L80.8813 60.8105H79.9377V67.6993H80.9218V63.5086H80.9395L81.9033 66.4711H82.3941L83.3655 63.5086H83.3832V67.6993H84.3673Z" fill="#AFB1B8"/>
<path d="M89.9579 61.2938C89.8064 61.1238 89.6151 60.9944 89.4014 60.9174C89.1711 60.8425 88.93 60.8064 88.688 60.8106H87.2258V67.6994H88.2074V65.009H88.7133C89.0196 65.0229 89.3243 64.9582 89.5987 64.8208C89.8219 64.6969 90.0079 64.5151 90.1375 64.2944C90.2511 64.1112 90.3276 63.9073 90.3627 63.6943C90.4013 63.4351 90.4191 63.1732 90.4158 62.9111C90.4253 62.5803 90.393 62.2496 90.3197 61.927C90.2542 61.6886 90.1298 61.4708 89.9579 61.2938ZM89.452 63.3942C89.4477 63.519 89.4167 63.6413 89.3609 63.7528C89.3048 63.8587 89.2161 63.9435 89.1079 63.9944C88.9625 64.0594 88.8039 64.089 88.645 64.0808H88.1972V61.7388H88.7032C88.8555 61.7313 89.0074 61.761 89.1459 61.8253C89.2474 61.8835 89.328 61.9725 89.3761 62.0795C89.4297 62.2006 89.459 62.3311 89.4621 62.4635C89.4621 62.6085 89.4621 62.7611 89.4621 62.9213C89.4621 63.0815 89.4722 63.2467 89.4621 63.3942H89.452Z" fill="#AFB1B8"/>
<path d="M94.6077 60.8105H93.8032L92.2854 67.6993H93.2669L93.5553 66.2193H94.8935L95.1819 67.6993H96.1635L94.6077 60.8105ZM93.702 65.281L94.1852 62.7838H94.2029L94.6836 65.281H93.702Z" fill="#AFB1B8"/>
<path d="M100.95 64.9606H100.932L99.4494 60.8105H98.5059V67.6993H99.4874V63.5569H99.5076L101.008 67.6993H101.931V60.8105H100.95V64.9606Z" fill="#AFB1B8"/>
<path d="M106.948 60.8105L106.158 63.5493H106.138L105.349 60.8105H104.309L105.657 64.7877V67.6993H106.639V64.7877L107.987 60.8105H106.948Z" fill="#AFB1B8"/>
<path d="M68 69.6447H68.4731V70.972H68.7943V69.6447H69.2649V69.3726H68V69.6447Z" fill="#AFB1B8"/>
<path d="M71.9767 69.3726L71.3569 70.972H71.6984L71.83 70.6084H72.4675L72.6041 70.972H72.9532L72.3182 69.3726H71.9767ZM71.9261 70.3389L72.1437 69.7464L72.3612 70.3389H71.9261Z" fill="#AFB1B8"/>
<path d="M75.9079 70.3821H76.2773V70.5881C76.1694 70.6746 76.0358 70.722 75.8978 70.7229C75.8333 70.7265 75.7689 70.7145 75.7099 70.688C75.6509 70.6614 75.5991 70.6211 75.5588 70.5703C75.474 70.4485 75.4322 70.3017 75.4399 70.1533C75.4399 69.7973 75.5942 69.6193 75.9003 69.6193C75.9809 69.6112 76.0617 69.6325 76.128 69.6791C76.1944 69.7257 76.2419 69.7947 76.2621 69.8735L76.5783 69.8125C76.51 69.4997 76.2849 69.3421 75.9003 69.3421C75.6947 69.3366 75.4947 69.4103 75.3413 69.5481C75.2607 69.6276 75.1983 69.7239 75.1586 69.8302C75.1188 69.9365 75.1026 70.0502 75.1111 70.1634C75.1017 70.3823 75.1749 70.5966 75.316 70.7636C75.3943 70.8444 75.4892 70.9071 75.594 70.9475C75.6988 70.9879 75.8111 71.0049 75.9231 70.9975C76.1734 71.0045 76.4165 70.9133 76.6011 70.7432V70.1126H75.9079V70.3821Z" fill="#AFB1B8"/>
<path d="M79.9227 69.3726H79.5989V70.972H80.7195V70.7H79.9227V69.3726Z" fill="#AFB1B8"/>
<path d="M83.3175 69.3726H82.9937V70.972H83.3175V69.3726Z" fill="#AFB1B8"/>
<path d="M86.6364 70.4406L85.9812 69.3726H85.6675V70.972H85.9685V69.9269L86.6111 70.972H86.9323V69.3726H86.6364V70.4406Z" fill="#AFB1B8"/>
<path d="M89.6368 70.2677H90.4337V69.9956H89.6368V69.6447H90.4944V69.3726H89.313V70.972H90.5273V70.7H89.6368V70.2677Z" fill="#AFB1B8"/>
<path d="M96.9121 70.0032H96.2822V69.3726H95.9609V70.972H96.2822V70.2728H96.9121V70.972H97.2334V69.3726H96.9121V70.0032Z" fill="#AFB1B8"/>
<path d="M99.9302 70.2677H100.73V69.9956H99.9302V69.6447H100.79V69.3726H99.6089V70.972H100.821V70.7H99.9302V70.2677Z" fill="#AFB1B8"/>
<path d="M104.023 70.2676C104.302 70.2244 104.443 70.0769 104.443 69.8226C104.451 69.7546 104.441 69.6856 104.413 69.623C104.386 69.5603 104.342 69.5063 104.286 69.4666C104.141 69.3938 103.98 69.3614 103.818 69.3725H103.14V70.972H103.462V70.3032H103.525C103.593 70.299 103.662 70.3112 103.725 70.3388C103.772 70.3678 103.811 70.4079 103.839 70.4558L104.188 70.9644H104.572L104.377 70.6516C104.291 70.4972 104.17 70.3656 104.023 70.2676ZM103.699 70.0464H103.462V69.6446H103.715C103.825 69.6357 103.936 69.6486 104.041 69.6827C104.064 69.7034 104.083 69.7291 104.095 69.7579C104.107 69.7867 104.113 69.8179 104.111 69.8492C104.11 69.8804 104.101 69.911 104.087 69.9385C104.072 69.966 104.051 69.9899 104.026 70.0082C103.92 70.0406 103.81 70.0535 103.699 70.0464Z" fill="#AFB1B8"/>
<path d="M107.109 70.2677H107.906V69.9956H107.109V69.6447H107.97V69.3726H106.786V70.972H108V70.7H107.109V70.2677Z" fill="#AFB1B8"/>
</svg>

<svg width="175" height="90" fill="none" xmlns="http://www.w3.org/2000/svg"><rect x=".5" y=".5" width="174" height="89" rx="3.5" stroke="#AFB1B8"/><path d="M84.977 21.934h.136c.254 0 .527.026.797.049a22.64 22.64 0 013.542.534v-2.863c-1.2-.301-2.422-.496-3.656-.583A29.224 29.224 0 0084.32 19h-.427c-2.475.01-4.94.327-7.337.946-2.73.68-5.35 1.747-7.784 3.166v28.397a31.633 31.633 0 017.42-2.892 32.36 32.36 0 016.228-.956h.084c.352-.018.703-.028 1.065-.03v-2.91a34.329 34.329 0 00-8.095 1.076c-.98.255-1.925.53-2.813.834l-1.012.344V24.833l.432-.208a28.276 28.276 0 0110.516-2.683.63.63 0 01.091 0c.403-.02.808-.03 1.205-.03h.455c.21.005.42.01.63.023z" fill="#AFB1B8"/><path d="M92.11 24.933a25.923 25.923 0 01-4.234-.344c-.45-.076-.893-.167-1.323-.267v28.072c1.82.45 3.69.67 5.565.656a29.943 29.943 0 007.337-.944 29.813 29.813 0 007.786-3.166V21.05a31.763 31.763 0 01-7.417 2.893c-2.52.648-5.111.98-7.713.99zm11.225.485l1.012-.34v22.148l-.433.209a27.759 27.759 0 01-5.173 1.859c-2.163.56-4.387.847-6.62.857-.668 0-1.33-.028-1.973-.084l-.693-.061V27.228l.807.054a28.38 28.38 0 001.854.056c2.835-.01 5.659-.372 8.406-1.078.944-.25 1.882-.529 2.813-.842zM70.737 61.212a1.492 1.492 0 00-1.125-.455 1.674 1.674 0 00-.65.122 1.464 1.464 0 00-.832.842c-.08.2-.12.413-.117.628v3.794c-.01.267.042.533.149.778.09.194.219.368.38.509.151.127.33.22.52.27.185.051.376.078.567.078.212.002.42-.043.612-.132a1.597 1.597 0 00.96-1.465v-.425h-.992v.339a.882.882 0 01-.059.338.609.609 0 01-.144.213.697.697 0 01-.415.145.504.504 0 01-.465-.203.898.898 0 01-.132-.509v-3.537c-.006-.196.036-.39.122-.567a.507.507 0 01.485-.229.526.526 0 01.443.214.806.806 0 01.165.508v.328h.981v-.386a1.786 1.786 0 00-.121-.664 1.562 1.562 0 00-.332-.534zM76.629 61.17a1.765 1.765 0 00-1.128-.418c-.202.001-.403.037-.592.107a1.56 1.56 0 00-.908.842c-.1.232-.15.482-.145.735v3.639c-.006.255.043.51.145.745.09.195.22.369.384.508.152.14.33.25.524.32.19.07.39.106.592.107a1.714 1.714 0 001.128-.427c.158-.142.285-.315.374-.508.102-.235.151-.49.144-.745v-3.64a1.77 1.77 0 00-.144-.734 1.641 1.641 0 00-.374-.532zm-.463 4.904a.656.656 0 01-.197.527.727.727 0 01-.934 0 .65.65 0 01-.197-.526v-3.64a.653.653 0 01.197-.526.726.726 0 01.934 0 .652.652 0 01.197.527v3.639zM84.367 67.7v-6.89h-.953l-1.253 3.647h-.017l-1.263-3.646h-.943v6.888h.984v-4.19h.017l.964 2.962h.491l.971-2.962h.018v4.19h.984zM89.958 61.294c-.152-.17-.343-.3-.557-.377a2.184 2.184 0 00-.713-.106h-1.462v6.888h.981v-2.69h.506c.307.014.611-.05.886-.188a1.43 1.43 0 00.538-.527c.114-.183.19-.387.226-.6.038-.259.056-.52.053-.783.01-.33-.023-.661-.096-.984a1.466 1.466 0 00-.362-.633zm-.506 2.1a.868.868 0 01-.091.359.553.553 0 01-.253.241 1.007 1.007 0 01-.463.087h-.448v-2.342h.506a.941.941 0 01.443.086.556.556 0 01.23.255c.054.12.083.251.086.384v.457c0 .16.01.326 0 .473h-.01zM94.608 60.81h-.805l-1.518 6.89h.982l.288-1.48h1.338l.289 1.48h.981l-1.555-6.89zm-.906 4.471l.483-2.497h.018l.48 2.497h-.981zM100.95 64.96h-.018l-1.483-4.15h-.943v6.89h.981v-4.143h.02l1.501 4.142h.923V60.81h-.981v4.15zM106.948 60.81l-.79 2.74h-.02l-.789-2.74h-1.04l1.348 3.978v2.911h.982v-2.911l1.348-3.977h-1.039zM68 69.645h.473v1.327h.321v-1.327h.47v-.272H68v.272zM71.977 69.373l-.62 1.599h.341l.132-.364h.638l.136.364h.35l-.636-1.6h-.341zm-.05.966l.217-.593.217.593h-.435zM75.908 70.382h.37v.206a.613.613 0 01-.38.135.404.404 0 01-.34-.153.67.67 0 01-.118-.417c0-.356.154-.534.46-.534a.337.337 0 01.362.255l.316-.061c-.068-.313-.293-.47-.678-.47a.804.804 0 00-.559.205.78.78 0 00-.23.615.872.872 0 00.205.6.776.776 0 00.607.234.96.96 0 00.678-.254v-.63h-.693v.27zM79.923 69.373h-.324v1.599h1.12V70.7h-.796v-1.327zM83.317 69.373h-.323v1.599h.323v-1.6zM86.636 70.44l-.655-1.067h-.313v1.599h.3v-1.045l.643 1.045h.321v-1.6h-.296v1.069zM89.637 70.268h.797v-.272h-.797v-.351h.857v-.272h-1.181v1.599h1.214V70.7h-.89v-.432zM96.912 70.003h-.63v-.63h-.321v1.599h.321v-.7h.63v.7h.321v-1.6h-.32v.631zM99.93 70.268h.8v-.272h-.8v-.351h.86v-.272h-1.181v1.599h1.212V70.7h-.89v-.432zM104.023 70.268c.279-.044.42-.191.42-.445a.38.38 0 00-.157-.356.903.903 0 00-.468-.094h-.678v1.599h.322v-.669h.063a.433.433 0 01.2.036c.047.029.086.069.114.117l.349.508h.384l-.195-.312a1.11 1.11 0 00-.354-.384zm-.324-.222h-.237v-.401h.253a.838.838 0 01.326.038.212.212 0 01.046.255.213.213 0 01-.061.07.915.915 0 01-.327.038zM107.109 70.268h.797v-.272h-.797v-.351h.861v-.272h-1.184v1.599H108V70.7h-.891v-.432z" fill="#AFB1B8"/></svg>
